!!!!SEGMENT: pl-wnifc--13846--094_anonim--piesni-polskie-i-ruskie-ludu-galicyjskiego-94-miesiacu-co-sie-po-scianie-blakasz.krn
!!!cenid: 18xx:3316
!!!COM: Anonim
!!!COM-rismID: pe30004985
!!!CDT:
!!!CNT:
!!!GTL: Pieśni polskie i ruskie ludu galicyjskiego
!!!OTL: 94. Miesiącu co się po ścianie błąkasz
!!!PDT: 1833
!!!AGN:
!!!SMS-siglum: PL-Wnifc
!!!SMS-shelfmark: 13846
!!!SMS-shelfwork: 094 G
!!!NIFC-rismSourceID: 1001039021
!!!NIFC-islandoraID:
!!!URL-pdf-islandora:
!!!URL-scan:
!!!ONB-nifc:
!!!AIN: 1 piano 1 soprn
!!!key: G
!!!OMD: Allegretto
**kern	**kern	**dynam	**kern	**text
*group2	*group2	*	*group1	*
*part2	*part2	*part2	*part1	*part1
*staff3	*staff2	*	*staff1	*staff1
*I"[Piano]	*I"[Piano]	*	*I"[Soprano]	*
*Ipiano	*Ipiano	*	*Isoprn	*
*ICklav	*ICklav	*	*ICvox	*
*IGacmp	*IGacmp	*	*IGsolo	*
*clefF4	*clefG2	*	*clefG2	*
*k[f#]	*k[f#]	*	*k[f#]	*
*G:	*G:	*	*G:	*
*M6/8	*M6/8	*	*M6/8	*
!	!	!	!LO:TX:b:B:rj:t=E.82.	!
8r	(<16g/LL	.	(<16gLL	Mie-
.	16a/JJ)	.	16aJJ)	.
=1	=1	=1	=1	=1
*	*^	*	*	*
!	!	!	!LO:DY:rj	!	!
(<4.GG^</ 4.G/	4b/	4g^<\	p	4b\	-si&#261;-
.	8b/	8fn\	.	8b\	-cu
4.GG^</) 4.G/	8dd/L	4e^<\	.	8dd\	co
.	8cc/	.	.	8cc\	si&#281;
.	8a/J	8f#X\	.	8a\	po
!!LO:LB:g=original
=2	=2	=2	=2	=2	=2
(<4.GG^</ 4.G/	(>4.cc/	8a^<\L	.	(>\4.cc	&#347;cia-
.	.	8d\	.	.	.
.	.	8f#\J	.	.	.
4.GG^</) 4.G/	4b/)	4g\	.	4b\)	-nie
.	(</16g^<LL	8rF	.	(<16g/LL	b&#322;&#261;-
.	16a/JJ)	.	.	16a/JJ)	.
=3	=3	=3	=3	=3	=3
(<4.GG^</ 4.G/	4b/	4g\	.	4b\	-kasz
.	8b/	8fn\	.	8b\	przed
4.GG^</) 4.G/	8dd/L	4e\	.	8dd\	me-
.	8cc/	.	.	8cc\	-mi
.	8a/J	8f#X\	.	8a\	ok-
=4	=4	=4	=4	=4	=4
(<4.GG^</ 4.G/	(>4.cc/	8a\L	.	(>4.cc\	-ny-
.	.	8d\	.	.	.
.	.	8f#\J	.	.	.
!	!LO:N:vis=4	!LO:N:vis=4	!	!	!
4.GG/) 4.G/	4.b/)	4.g\	.	4.b\)	-ma
*	*v	*v	*	*	*
!!LO:LB:g=original
=!|:	=!|:	=!|:	=!|:	=!|:
8r	(<16g/LL	.	16g/LL	pró-
.	16b/JJ)	.	16b/JJ	.
=5	=5	=5	=5	=5
4G^<\ 4B\ 4d\	4dd^<\	.	4dd\	-&#380;no
8G\ 8B\ 8d\	8dd\	.	8dd\	zwie-
4G^<\ 4B-X\ 4c\ 4e#X\	(>8gg\L	.	8gg\L	-dzasz
.	8ff#\)	.	8ff#\	to
8G\ 8B-\ 8c\ 8e#\	8ee\J	.	8ee\	mie-
=6	=6	=6	=6	=6
4.F#^<\ 4.A\ 4.d\	4dd^<\	.	(>4dd\	-szka-
.	8cc\	.	8cc\)	.
(>8F#\L	(<4a/	.	(<4a/	-nie,
8A\	.	.	.	.
8d\J)	8cc/)	.	8cc/)	.
!!LO:LB:g=original
=7	=7	=7	=7	=7
*	*^	*	*	*
4.G\	(<8g/L 8b/	4.ryy	.	8b\	me-
.	8f#/) 8a/	.	.	8a\	-go
!	!LO:TX:b:t=|:problem	!	!	!	!
.	8fnJ 8b	.	.	8b\	ko-
4C/	(<8dd/L	4e^<\	.	8dd\	-chan-
.	8cc/)	.	.	8cc\	-ka
8D/	8f#XJ/	8c\ 8f#\	.	8f#/	tu
*	*v	*v	*	*	*
=8	=8	=8	=8	=8
4D\	(<4.c/ 4.a/	.	(<4.a/	nie'-
8DD/	.	.	.	.
4.GG/	4.B/) 4.g/	.	4.g/)	-ma.
==	==	==	==	==
*-	*-	*-	*-	*-
!!!RDF**kern: > = above
!!!RDF**kern: < = below
!!!system-decoration: g1,[{g2}]
!!!ENC: Jędrzej Mróz
!!!END: 2021-11-11
!!!YEC: Copyright 2022 Narodowy Instytut Fryderyka Chopina (https://polishscores.org)
!!!YEM: Licence CC BY 4.0 (https://creativecommons.org/licenses/by/4.0)
